src/actions/22/mail-meeting-request-reply.svg

<svg xmlns="http://www.w3.org/2000/svg" viewBox="0 0 22 22">
  <defs id="defs3051">
    <style type="text/css" id="current-color-scheme">
      .ColorScheme-Text {
        color:#2e3440;
      }
      </style>
  </defs>
 <path 
     style="fill:currentColor;fill-opacity:1;stroke:none" 
     d="M 1 3 L 1 4 L 1 12 L 1 18 L 1 18.414062 L 1 19 L 2 19 L 8 19 L 14 19 L 14 18 L 8 18 L 2 18 L 2 17.414062 L 2.4628906 16.951172 L 8.7304688 10.683594 L 10.183594 12.134766 L 10.998047 12.949219 L 11 12.949219 L 11.816406 12.134766 L 13.269531 10.683594 L 14.585938 12 L 16 12 L 13.976562 9.9765625 L 19.728516 4.2226562 L 19.951172 4 L 20 4 L 20 4.2226562 L 20 12 L 21 12 L 21 3 L 20.951172 3 L 20 3 L 19.537109 3 L 2.4628906 3 L 2 3 L 1 3 z M 2 4 L 2.0488281 4 L 2.2714844 4.2226562 L 8.0234375 9.9765625 L 2 16 L 2 12 L 2 4.2226562 L 2 4 z M 3.4628906 4 L 18.537109 4 L 11 11.537109 L 3.4628906 4 z "
     class="ColorScheme-Text"
     />
    <path
     style="fill:#ebcb8b;fill-opacity:1;stroke:none"
     d="M 18 13 L 18 17 L 19 17 L 19 13 L 18 13 z M 18 18 L 18 19 L 19 19 L 19 18 L 18 18 z "
     />
</svg>

<svg viewBox="0 0 22 22" xmlns="http://www.w3.org/2000/svg">
 <defs>
  <style type="text/css">.ColorScheme-Text {
        color:#2e3440;
      }</style>
 </defs>
 <path class="ColorScheme-Text" d="m1 3v1 8 6 0.41406 0.58594h1 6 6v-1h-6-6v-0.58594l6.7305-6.7305 1.4531 1.4512 0.81445 0.81445h0.001953l0.81641-0.81445 1.4531-1.4512 1.3164 1.3164h1.4141l-2.0234-2.0234 5.752-5.7539 0.22266-0.22266h0.048828v0.22266 7.7773h1v-9h-0.048828-0.95117-0.46289-17.074-0.46289-1zm1 1h0.048828l0.22266 0.22266 5.752 5.7539-6.0234 6.0234v-4-7.7773-0.22266zm1.4629 0h15.074l-7.5371 7.5371-7.5371-7.5371z" fill="currentColor"/>
 <path d="m18 13v4h1v-4h-1zm0 5v1h1v-1h-1z" fill="#ebcb8b"/>
</svg>
